X: 17904
T: Hounds On The Heath
R: three-two
M: 3/2
K: Dmajor
|:ABBA dBde f2ed|affa e~f3 edBd|gffe edde BABd|ABdB def2 edde|
ABBA dBde f2ed|affa e~f3 edBd|gffe edef efBd|ABdB def2 edde:|
|:B3B BAGB d3B|def2 edde affa|gffe edde BABd|ABdB def2 edde|
[1 B3B BAGB d3B|def2 edde affa|gffe edef efBd|ABdB def2 edde:|
[2 B3A Bdgf efdB|dea2 edde affa|gffe edgf feed|gffe edde BABd||

